!!!SOCIAL_FUNCTION:	songs in honor of an individual
!!!PDT:	1918

Specific Region: Dakotas, Minnesota, Montana, Nebraska
!!!REG: Dakotas and Montana
!!!LING_GROUP: Siouan
!!!LANG: Tone
!!!OTL@ENG: Take Fresh Courage
!!!ONM: No. 223
**kern
*Imale
*clefG2
*k[b-e-]
*M3/4
*MM72
8g
8a
8g
8g
16g
8.d
=1||
*M5/8
8g
8g
32g
16.d
8d
32d
32c
16c
=2||
*M3/4
8d
8d
8c
8c
8B-
8B-
=3||
*M2/4
8c
8c
8B-
8B-
=4||
*M3/4
8A
8A
8c
8c
8B-
8B-
=5||
*M2/4
8B-
8B-
8B-
8B-
=6
4A
8.A
16A
=7||
*M3/4
8A
8A
8A
8A
8A
8A
=8||
*M2/4
4A
8A
8A
=9||
*M5/8
8d
16d
16d
8d
16d
16c
8c
=10||
*M2/4
8d
16d
16c
8c
8c
=11||
*M3/4
4B-
8c
8c
8B-
8B-
=12||
*M2/4
16.A
32A
8A
8d
8d
=13
8c
8c
8c
8c
=14
8c
8c
8c
8c
=15
8A
16.A
32A
4A
=16
8A
8A
8A
8A
=17
2A
==
*-
!!!CNT: Native American -- Sioux
!!!MRD: 1911/07//-1914///
!!!OCL: Frances Densmore
!!!YOR1: Teton Sioux Music, Bulletin 61,
!!!YOR2: Bureau of American Ethnology, Smithsonian Institution
!!!PPR: Government Printing Office
!!!PPP: Washington, D.C.
!!!PDT: 1918///
!!!ENC: Craig Stuart Sapp
!!!END: 2002/03/25/
!!!EEV: 2002/03/31/
!!!AGN: Song in Honor of an Individual
!!!MPN@@SIO: Shiya'ka
!!!MPN@ENG: Teal Duck
!!!TXO: Teton Sioux
!!!MLC: Standing Rock Reservation, South Dakota, United States of America
!!!ARL: 45.9/-100.7#
!!!catalog: Catalogue No. 478
!!!PPG: 501
!!!EFL: 228/245
!!!VTS: 4160517822
